X:407
T: Rschen (127a), S. 289
N: T0295
O: Luxemburg
S: Singendes Volk, Esch-Alzette 1937 posth.]
N: Reuland, hhh Gabriel Petry, 1907
R: Liebeslieder]
M: 3/4
L: 1/16
K: A
C2D2 | E4c4A2F2 | E4C4
F2E2 | D4E4c2B2 | A4z4
C2D2 | E4c4A2F2 | E4C4F2E2 | D4E4c2B2 | A4z2
E2E2E2 | B3BB4E2E2 | c3cA2
E2E2E2 | d4d4e4c2c2 | B4z4
E2E2 | c6B2A2F2 | E4C4
F2E2 | D4E4c2B2 | A4z4

@@@ Tune index: 8461
